X:1
T:Droichead Loch Gearr
T:Bridge of Lough Garr
M:6/8
L:1/8
R:Jig
S:James Goodman manuscripts (mid-19th century)
K:D
(3f/e/d/|cAA BGA/G/|FGA cde/f/|cAF GBG|AFD D2(3f/e/d/|
cAA BGA/G/|FGA cde/f/|cAF GBG|AFD D2:|
|:z|fff gfg|afd ecA|fff gfg|afd d2e/f/|
agf gfe|fed dfd|cAF GBG|AFD D2:||

